libs/ui/packages/crypto-icons/src/svg/COLX.svg

<svg width="24" height="24" viewBox="0 0 24 24" fill="none">
<path d="M19.4123 9.57754L18.1463 8.31154C17.9561 8.12035 17.7298 7.96886 17.4805 7.86586C17.2312 7.76286 16.964 7.71041 16.6943 7.71154H16.4993V7.50904C16.4993 7.15429 16.4153 6.81679 16.2383 6.51304C16.1472 6.33688 16.0273 6.17718 15.8836 6.04054L14.6176 4.77379C14.4272 4.58251 14.2008 4.43097 13.9514 4.32797C13.702 4.22496 13.4346 4.17256 13.1648 4.17379H7.33131C6.78231 4.17379 6.26781 4.38529 5.87931 4.77379L4.61331 6.03979C4.42158 6.2279 4.26966 6.45266 4.16658 6.70069C4.06351 6.94872 4.01138 7.21495 4.01331 7.48354L3.97956 12.9548C3.97206 13.503 4.19106 14.0348 4.57956 14.4233L5.84556 15.69C6.03582 15.8811 6.26216 16.0325 6.51142 16.1354C6.76069 16.2382 7.0279 16.2906 7.29756 16.2893H7.52556V16.4918C7.52556 16.8465 7.61031 17.184 7.78731 17.4878C7.88031 17.6655 7.99806 17.8253 8.14206 17.9603L9.40806 19.2278C9.59851 19.4186 9.8249 19.5697 10.0741 19.6724C10.3234 19.7752 10.5905 19.8275 10.8601 19.8263H16.7026C17.2516 19.8263 17.7661 19.6155 18.1546 19.227L19.4213 17.961C19.6122 17.7706 19.7634 17.5443 19.8663 17.295C19.9691 17.0458 20.0216 16.7787 20.0206 16.509V11.0213C20.0191 10.7525 19.9647 10.4867 19.8605 10.239C19.7563 9.99122 19.6042 9.76647 19.4131 9.57754H19.4123ZM7.29756 14.4315C7.24398 14.4316 7.19252 14.4106 7.15431 14.373L6.52131 13.7393L5.88756 13.1063C5.86037 13.0743 5.84018 13.037 5.82831 12.9968V7.49254C5.82831 7.43254 5.85381 7.38229 5.88831 7.34854L7.15431 6.08254C7.17081 6.06529 7.18806 6.05704 7.20456 6.04879C7.23584 6.03247 7.27052 6.02373 7.30581 6.02329H13.1483C13.1821 6.02329 13.2076 6.03154 13.2413 6.04879C13.2668 6.05704 13.2833 6.07429 13.3006 6.09079L14.5666 7.35754C14.5851 7.37338 14.5995 7.39345 14.6086 7.41604C14.6176 7.42504 14.6176 7.43329 14.6176 7.44154C14.6176 7.44979 14.6251 7.45879 14.6251 7.46704C14.6251 7.47529 14.6341 7.50079 14.6341 7.51729V7.78729C14.6341 7.90579 14.5411 7.98979 14.4316 7.98979H13.4191C13.3652 7.99005 13.3135 7.96903 13.2751 7.93129L12.7006 7.35754H7.75356L7.54281 7.56754L7.25556 7.85554V12.6083L7.75356 13.1063H12.6923L13.2668 12.5243L13.2743 12.5153C13.2916 12.507 13.3088 12.4898 13.3253 12.4815C13.3508 12.465 13.3853 12.465 13.4101 12.465H14.4226C14.4901 12.465 14.5501 12.4988 14.5921 12.549C14.6183 12.5831 14.633 12.6246 14.6341 12.6675V12.9548C14.6339 13.0085 14.6126 13.0599 14.5748 13.098L13.9418 13.731L13.3088 14.364C13.3006 14.373 13.2833 14.3813 13.2751 14.3895C13.2751 14.3895 13.2668 14.3978 13.2578 14.3978C13.2496 14.4068 13.2413 14.4068 13.2323 14.4068C13.2248 14.4068 13.2248 14.4068 13.2158 14.415C13.2076 14.415 13.1986 14.4233 13.1903 14.4233H7.29756V14.4315ZM18.1718 16.4918C18.1715 16.5456 18.1499 16.5971 18.1118 16.635L16.8458 17.9018C16.8311 17.9158 16.8141 17.9272 16.7956 17.9355C16.7643 17.9519 16.7296 17.9606 16.6943 17.961H10.8518C10.8191 17.9606 10.7871 17.9518 10.7588 17.9355C10.7362 17.9264 10.7161 17.912 10.7003 17.8935L9.43356 16.6268C9.41706 16.6103 9.39981 16.593 9.39156 16.5675C9.38256 16.56 9.38256 16.551 9.38256 16.5428C9.38256 16.5338 9.37506 16.5255 9.37506 16.5173C9.37506 16.509 9.36606 16.4835 9.36606 16.4663V16.1963C9.36606 16.0785 9.45906 15.9938 9.56856 15.9938H10.5811C10.6411 15.9938 10.6913 16.0193 10.7251 16.053L11.2996 16.6268H16.2383L16.4491 16.416L16.7363 16.1288V11.376L16.2383 10.8773H11.3078L10.7341 11.46L10.7251 11.4683C10.7086 11.4773 10.6913 11.4938 10.6748 11.502C10.6493 11.5193 10.6156 11.5193 10.5901 11.5193H9.57756C9.54478 11.5187 9.51256 11.5107 9.48324 11.4961C9.45392 11.4814 9.42823 11.4604 9.40806 11.4345C9.38194 11.4007 9.36724 11.3595 9.36606 11.3168V11.0295C9.36604 11.0029 9.37127 10.9766 9.38143 10.952C9.3916 10.9274 9.40651 10.9051 9.42531 10.8863L10.0583 10.2533L10.6913 9.61954C10.7003 9.61129 10.7168 9.60304 10.7251 9.59404C10.7251 9.59404 10.7341 9.58654 10.7423 9.58654C10.7506 9.57754 10.7588 9.57754 10.7678 9.57754C10.7753 9.57754 10.7753 9.57754 10.7843 9.56929C10.7926 9.56929 10.8016 9.56029 10.8098 9.56029H16.6943C16.7528 9.56029 16.8038 9.58579 16.8376 9.62029L17.4706 10.2533L18.1043 10.8863C18.1118 10.8945 18.1208 10.9028 18.1291 10.92C18.144 10.9435 18.1554 10.969 18.1628 10.9958V11.0378C18.1718 11.0213 18.1718 16.4918 18.1718 16.4918Z" fill="#77C3B0"/>
</svg>

<svg width="24" height="24" viewBox="0 0 24 24" fill="none"><path fill="#77c3b0" d="m19.412 9.578-1.266-1.266a2.04 2.04 0 0 0-1.452-.6H16.5v-.203c0-.355-.084-.692-.26-.996a1.8 1.8 0 0 0-.355-.472l-1.266-1.267a2.04 2.04 0 0 0-1.453-.6H7.33c-.549 0-1.063.211-1.452.6L4.613 6.04a2 2 0 0 0-.6 1.444l-.033 5.47c-.008.549.211 1.08.6 1.47l1.266 1.266a2.04 2.04 0 0 0 1.452.6h.228v.202c0 .354.084.692.261.996q.14.268.355.472l1.266 1.268a2.04 2.04 0 0 0 1.452.598h5.843c.549 0 1.063-.21 1.452-.599l1.266-1.266a2.04 2.04 0 0 0 .6-1.452v-5.488a2.05 2.05 0 0 0-.608-1.443M7.298 14.432a.2.2 0 0 1-.144-.059l-.633-.634-.633-.633a.3.3 0 0 1-.06-.11V7.494a.2.2 0 0 1 .06-.144l1.266-1.266c.017-.018.034-.026.05-.034a.2.2 0 0 1 .102-.026h5.842a.2.2 0 0 1 .093.026c.026.008.042.025.06.042l1.266 1.267a.15.15 0 0 1 .042.058c.009.009.009.017.009.026s.007.017.007.025.01.034.01.05v.27a.2.2 0 0 1-.203.203h-1.013a.2.2 0 0 1-.144-.059l-.574-.573H7.754l-.211.21-.287.288v4.752l.498.498h4.938l.575-.582.007-.009c.018-.008.035-.025.051-.034.026-.016.06-.016.085-.016h1.013c.067 0 .127.034.17.084q.038.053.041.119v.287a.2.2 0 0 1-.06.143l-.632.633-.633.633c-.008.009-.026.017-.034.025 0 0-.008.009-.017.009-.008.009-.017.009-.026.009-.007 0-.007 0-.016.008-.008 0-.017.008-.026.008H7.298zm10.874 2.06a.2.2 0 0 1-.06.143l-1.266 1.267a.2.2 0 0 1-.05.034.2.2 0 0 1-.102.025h-5.842a.2.2 0 0 1-.093-.025.15.15 0 0 1-.059-.043l-1.266-1.266a.15.15 0 0 1-.042-.06c-.01-.007-.01-.016-.01-.024 0-.01-.007-.017-.007-.026s-.009-.034-.009-.05v-.27a.2.2 0 0 1 .203-.203h1.012c.06 0 .11.025.144.059l.575.574h4.938l.211-.211.287-.287v-4.753l-.498-.499h-4.93l-.574.583-.009.008c-.016.01-.034.026-.05.034-.026.017-.06.017-.085.017H9.578a.22.22 0 0 1-.17-.085.2.2 0 0 1-.042-.117v-.287a.2.2 0 0 1 .06-.144l.632-.633.633-.633c.01-.009.026-.017.034-.026 0 0 .01-.007.017-.007.009-.01.017-.01.026-.01.007 0 .007 0 .016-.008.009 0 .018-.009.026-.009h5.884c.059 0 .11.026.144.06l.633.633.633.633c.008.009.017.017.025.034a.3.3 0 0 1 .034.076v.042c.009-.017.009 5.454.009 5.454"/></svg>
